X: 71
T: Da gu la
%%abc-version 2.0
%%abcx-abcm2ps-target-version 5.9.1 (29 Sep 2008)
%%abc-creator hum2abc beta
%%abcx-conversion-date 2013/10/02 07:44:27
%%abc-edited-by Helmut Schaffrath
%%humdrum-veritas 267204145
%%humdrum-veritas-data 1706351899
%%continueall 1
%%barnumbers 0
L: 1/8
M: 2/4
K: C
A2A G [I:setbarnb 1]| 
c> de2 | 
E G G A/ G/ | 
E EE2 | 
e e/ e/ e d | 
c c d3/ g/ | 
e4- | 
e4 | 
Ac2d | 
e> g e d | 
c d/ e/ d c | 
A AA2 | 
c d/ e/ A G | 
E/ E/ G c3/ d/ | 
A4- | 
A4 |]  



